X:219
T:Top to Bottom* (reel) 
F:file ID: cre.4/219top_b
S:Sheahan MS
B:CRE4.111: unnamed
Q:180
L:1/8
M:4/4
R:reel
K:G
(3def|g2AG EGDG|EGDC [BB,]D[GG,]B|cecA BcdB|cBBf gfed|
Bb~b2 Ba~a2|Bbbf gfgd|egfa gedB|cedc BG G2 ||
gdga bgag|bgag eaaf|gdga bgaf|gedc BG G2|
gdga bgag|bgag eaaf|gbeg fadf|gfef gabf ||

%%%

